symbols/web/rv_hookup/materialsymbolsoutlined/rv_hookup_grad200_40px.svg

<svg xmlns="http://www.w3.org/2000/svg" height="40" width="40"><path d="m33.125 36.958-2.5-2.458 2.042-2.083H19.708q-.541 1.583-1.937 2.562-1.396.979-3.063.979-1.708 0-3.083-.979Q10.25 34 9.667 32.417H7.75q-2.375 0-3.917-1.521-1.541-1.521-1.541-3.854v-10.75h10.5v-5.5h-10.5v-3.5h22.666q1.375 0 2.438 1.041 1.062 1.042 1.062 2.459v18.125h4.167l-2-2 2.5-2.5 6.25 6.291ZM16.292 16.292h8.666v-5.5h-8.666Zm-1.584 16.166q.792 0 1.313-.52.521-.521.521-1.313 0-.792-.521-1.333-.521-.542-1.313-.542-.791 0-1.333.521-.542.521-.542 1.312 0 .792.521 1.334.521.541 1.354.541Zm-5.041-3.541q.583-1.584 1.958-2.605 1.375-1.02 3.083-1.02 1.667 0 3.063 1.02 1.396 1.021 1.937 2.605h5.25v-9.125H5.792v7.25q0 .833.541 1.354.542.521 1.375.521Zm0-9.125H5.792h19.166H9.667Z"/></svg>

<svg xmlns="http://www.w3.org/2000/svg" height="40" width="40"><path d="M33.125 36.958 30.625 34.5 32.667 32.417H19.708Q19.167 34 17.771 34.979Q16.375 35.958 14.708 35.958Q13 35.958 11.625 34.979Q10.25 34 9.667 32.417H7.75Q5.375 32.417 3.833 30.896Q2.292 29.375 2.292 27.042V16.292H12.792V10.792H2.292V7.292H24.958Q26.333 7.292 27.396 8.333Q28.458 9.375 28.458 10.792V28.917H32.625L30.625 26.917L33.125 24.417L39.375 30.708ZM16.292 16.292H24.958V10.792Q24.958 10.792 24.958 10.792Q24.958 10.792 24.958 10.792H16.292ZM14.708 32.458Q15.5 32.458 16.021 31.938Q16.542 31.417 16.542 30.625Q16.542 29.833 16.021 29.292Q15.5 28.75 14.708 28.75Q13.917 28.75 13.375 29.271Q12.833 29.792 12.833 30.583Q12.833 31.375 13.354 31.917Q13.875 32.458 14.708 32.458ZM9.667 28.917Q10.25 27.333 11.625 26.312Q13 25.292 14.708 25.292Q16.375 25.292 17.771 26.312Q19.167 27.333 19.708 28.917H24.958V19.792H5.792V27.042Q5.792 27.875 6.333 28.396Q6.875 28.917 7.708 28.917ZM9.667 19.792H7.708Q6.875 19.792 6.333 19.792Q5.792 19.792 5.792 19.792H24.958H19.708Q19.167 19.792 17.771 19.792Q16.375 19.792 14.708 19.792Q13 19.792 11.625 19.792Q10.25 19.792 9.667 19.792Z"/></svg>
